X: 3
T: Sergeant Early's Dream
R: reel
M: 4/4
L: 1/8
K: Ddor
cB|ADDE FAcA|GECD ~E3F|DA,DE FEFG|Adde fedc|
ADDE FAcA|GECD ~E3F|DA,DE FAcA|GFEF D2:|
|:dc|Addc ~d3e|f2ed cAGF|ECEG ~c3d|ecdc AcGc|
Addc ~d3e|f2ed cAGc|AE~E2 cE~E2|CDEC D2:|


Tune 1651	Setting 1651

